mobile/apps/auth/assets/custom-icons/icons/allegro.svg

<svg xmlns="http://www.w3.org/2000/svg" baseProfile="tiny-ps" version="1.2" viewBox="0 0 1386 1594"><style></style><path id="Layer" fill-rule="evenodd" d="M1385.14 634.99v912.14c0 5.9-1.13 11.75-3.38 17.22a46.432 46.432 0 0 1-9.76 14.58 44.889 44.889 0 0 1-14.64 9.76c-5.47 2.25-11.32 3.43-17.22 3.43H570.51a642.524 642.524 0 0 1-107.53-2.89c-35.72-3.97-71-10.94-105.54-20.81-34.54-9.87-68.16-22.63-100.56-38.07a643.816 643.816 0 0 1-92.83-54.38 445.826 445.826 0 0 1-72.45-75.34c-21.13-27.83-38.94-58.07-52.99-90.09a446.672 446.672 0 0 1-30.51-99.95c-6.28-34.43-8.42-69.45-6.49-104.3v-4.88c0-460.36 501.33-521.17 665-521.17h380.29v-33.41c.8-21.99-1.4-44.03-6.54-65.42-5.15-21.4-13.14-41.99-23.82-61.24a243.53 243.53 0 0 0-39.31-52.66c-15.44-15.71-32.98-29.23-52.02-40.22-139.33-70.52-413.1-44.4-641.3 96.09a40.713 40.713 0 0 1-19.14 9.28c-7.08 1.34-14.43.81-21.24-1.61a40.757 40.757 0 0 1-17.54-12.12 41.68 41.68 0 0 1-9.01-19.3l-13.99-228.6c0-2.95.32-5.85 1.07-8.69.7-2.84 1.82-5.57 3.27-8.15 1.4-2.52 3.17-4.88 5.2-6.97 2.09-2.09 4.4-3.91 6.92-5.42 40.22-23.22 81.95-43.81 124.85-61.56 42.96-17.75 86.99-32.65 131.87-44.61 44.95-11.96 90.58-20.92 136.65-26.87 46.07-5.9 92.51-8.79 138.96-8.63 186.2 0 386.99 54.11 486.74 162.96 99.8 108.86 146.03 266.35 146.03 473.72l.59-1.82ZM1046.9 858.76H687.31c-276.83 0-332.18 164.2-332.18 246.29-.26 14.59 1.24 29.12 4.51 43.33 3.27 14.21 8.26 27.94 14.85 40.92 6.6 13.03 14.75 25.15 24.35 36.14a175.737 175.737 0 0 0 32.34 29.17 274.297 274.297 0 0 0 36.52 23.38 286.952 286.952 0 0 0 39.69 17.48 281.28 281.28 0 0 0 41.88 11.16c14.21 2.63 28.64 4.13 43.12 4.56h454.51V858.76Z" style="fill:#ff5a00"/></svg>

<svg version="1.2" baseProfile="tiny-ps" xmlns="http://www.w3.org/2000/svg" viewBox="0 0 1386 1594" width="1386" height="1594">
	<title>logo (15)-svg copy-svg</title>
	<style>
		tspan { white-space:pre }
		.shp0 { fill: #ff5a00 } 
	</style>
	<path id="Layer" fill-rule="evenodd" class="shp0" d="M1385.14 634.99L1385.14 1547.13C1385.14 1553.03 1384.01 1558.88 1381.76 1564.35C1379.45 1569.82 1376.13 1574.75 1372 1578.93C1367.82 1583.11 1362.83 1586.44 1357.36 1588.69C1351.89 1590.94 1346.04 1592.12 1340.14 1592.12L570.51 1592.12C534.63 1594.16 498.65 1593.2 462.98 1589.23C427.26 1585.26 391.98 1578.29 357.44 1568.42C322.9 1558.55 289.28 1545.79 256.88 1530.35C224.49 1514.85 193.44 1496.67 164.05 1475.97C137.02 1453.77 112.73 1428.52 91.6 1400.63C70.47 1372.8 52.66 1342.56 38.61 1310.54C24.56 1278.53 14.32 1244.96 8.1 1210.59C1.82 1176.16 -0.32 1141.14 1.61 1106.29L1.61 1101.41C1.61 641.05 502.94 580.24 666.61 580.24L1046.9 580.24L1046.9 546.83C1047.7 524.84 1045.5 502.8 1040.36 481.41C1035.21 460.01 1027.22 439.42 1016.54 420.17C1005.87 400.92 992.63 383.17 977.23 367.51C961.79 351.8 944.25 338.28 925.21 327.29C785.88 256.77 512.11 282.89 283.91 423.38C278.5 428.1 271.85 431.32 264.77 432.66C257.69 434 250.34 433.47 243.53 431.05C236.72 428.64 230.66 424.46 225.99 418.93C221.38 413.41 218.27 406.76 216.98 399.63L202.99 171.03C202.99 168.08 203.31 165.18 204.06 162.34C204.76 159.5 205.88 156.77 207.33 154.19C208.73 151.67 210.5 149.31 212.53 147.22C214.62 145.13 216.93 143.31 219.45 141.8C259.67 118.58 301.4 97.99 344.3 80.24C387.26 62.49 431.29 47.59 476.17 35.63C521.12 23.67 566.75 14.71 612.82 8.76C658.89 2.86 705.33 -0.03 751.78 0.13C937.98 0.13 1138.77 54.24 1238.52 163.09C1338.32 271.95 1384.55 429.44 1384.55 636.81L1385.14 634.99ZM1046.9 858.76L687.31 858.76C410.48 858.76 355.13 1022.96 355.13 1105.05C354.87 1119.64 356.37 1134.17 359.64 1148.38C362.91 1162.59 367.9 1176.32 374.49 1189.3C381.09 1202.33 389.24 1214.45 398.84 1225.44C408.39 1236.49 419.22 1246.25 431.18 1254.61C442.71 1263.35 454.94 1271.18 467.7 1277.99C480.47 1284.8 493.71 1290.65 507.39 1295.47C521.01 1300.25 535.06 1304 549.27 1306.63C563.48 1309.26 577.91 1310.76 592.39 1311.19L1046.9 1311.19L1046.9 858.76Z" />
</svg>
